X:1
T:Donald Ross of Vancouver
M:6/8
L:1/8
Q:80
C:P/M Donald Morrison
S:Slow Air
K:HP
|: {g}f3/2e/2{g}f/2d/2{g}A3 | \
{gBd}B3/2{e}G/2{g}B/2d/2{g}A3 | \
{g}f3/2d/2e/2g/2{a}f2a |
{f}g2{a}f{g}f/2e/2-e2:|2  | \
{g}f3/2e/2{g}f/2d/2{g}A3 | \
{gBd}B3/2{e}G/2{g}B/2d/2{g}A3 |
{gBd}B3/2{e}A/2{g}B/2d/2{g}e2d | \
{g}e/2f3/2e{g}e/2d/2-d2 :: \
{g}f3/2d/2e/2g/2{a}f3/2d/2e/2g/2 |
{a}f2de{g}d2 | \
{gBd}B3/2{e}G/2{g}B/2d/2{g}A3/2{d}G/2{g}B/2d/2 | \
{g}A2{gf}g3/4f/4{g}f/2e/2-e2|1 |
{g}f3/2d/2e/2g/2{a}f3/2d/2e/2g/2 | \
{a}f2de{g}d2 | \
{gBd}B3/2{e}A/2{g}B/2d/2{g}e2d |
{g}e/2f3/2e{g}e/2d/2-d2 :|
